projects/packages/backup/src/js/components/icons/history.svg

<svg fill="none" height="32" viewBox="0 0 32 32" width="32" xmlns="http://www.w3.org/2000/svg" xmlns:xlink="http://www.w3.org/1999/xlink"><mask id="a" height="16" maskUnits="userSpaceOnUse" width="18" x="6" y="8"><path clip-rule="evenodd" d="m8.75 16c0-4.1417 3.3583-7.5 7.5-7.5s7.5 3.3583 7.5 7.5-3.3583 7.5-7.5 7.5c-2.075 0-3.9417-.8417-5.3-2.2l1.1833-1.1833c1.05 1.0583 2.5084 1.7166 4.1167 1.7166 3.225 0 5.8333-2.6083 5.8333-5.8333s-2.6083-5.8333-5.8333-5.8333-5.8333 2.6083-5.8333 5.8333h2.5l-3.3667 3.3583-.05833-.1166-3.24167-3.2417zm6.6667.8333v-4.1666h1.25v3.4583l2.9333 1.7417-.6417 1.0666z" fill="#fff" fill-rule="evenodd"/></mask><rect fill="#008710" height="32" rx="4" width="32"/><g mask="url(#a)"><path d="m5 6h20v20h-20z" fill="#fff"/></g></svg>

<svg width="32" height="32" viewBox="0 0 32 32" fill="none" xmlns="http://www.w3.org/2000/svg">
<rect width="32" height="32" rx="4" fill="#008710"/>
<mask id="mask0_3026_4955" style="mask-type:luminance" maskUnits="userSpaceOnUse" x="6" y="8" width="18" height="16">
<path fill-rule="evenodd" clip-rule="evenodd" d="M8.75 16C8.75 11.8583 12.1083 8.5 16.25 8.5C20.3917 8.5 23.75 11.8583 23.75 16C23.75 20.1417 20.3917 23.5 16.25 23.5C14.175 23.5 12.3083 22.6583 10.95 21.3L12.1333 20.1167C13.1833 21.175 14.6417 21.8333 16.25 21.8333C19.475 21.8333 22.0833 19.225 22.0833 16C22.0833 12.775 19.475 10.1667 16.25 10.1667C13.025 10.1667 10.4167 12.775 10.4167 16H12.9167L9.55 19.3583L9.49167 19.2417L6.25 16H8.75ZM15.4167 16.8333V12.6667H16.6667V16.125L19.6 17.8667L18.9583 18.9333L15.4167 16.8333Z" fill="white"/>
</mask>
<g mask="url(#mask0_3026_4955)">
<rect x="5" y="6" width="20" height="20" fill="white"/>
</g>
</svg>
